artwork/resources/intui/icons/shell/toolbar/gradle-sync.svg

<svg width="16" height="16" viewBox="0 0 16 16" fill="none" xmlns="http://www.w3.org/2000/svg">
<g id="gradle-sync/light" clip-path="url(#clip0_2_595)">
<g id="gradle-sync/dark" clip-path="url(#clip1_2_595)">
<g id="toolbar/gradle sync">
<g id="Gradle">
<g id="Elephant">
<path id="Subtract" fill-rule="evenodd" clip-rule="evenodd" d="M13.9726 2.10841C14.6263 2.32831 15.1093 2.84182 15.3414 3.32076C15.4079 3.44934 15.4553 3.58484 15.4853 3.72428C15.5017 3.78339 15.5182 3.8486 15.5339 3.91951C15.6117 4.27083 15.6703 4.76559 15.6003 5.35416C15.5073 6.13698 15.1907 7.05417 14.4403 8H13.0919C13.7634 7.34813 14.153 6.7195 14.3723 6.16031C13.9864 6.41163 13.5118 6.56982 12.9631 6.56982C12.3136 6.56982 11.6931 6.30255 11.1163 6.0133C10.9342 5.92196 10.7556 5.82806 10.5765 5.73391C10.1568 5.51329 9.73459 5.29135 9.25924 5.09808C7.96769 4.57296 6.38033 4.30793 4.14481 5.41011C3.96409 5.49921 3.86134 5.7262 3.93546 5.95622L4.05155 6.31646L4.05407 6.32429L4.054 6.32431L4.63235 8.22556C4.67095 8.33234 4.76822 8.42285 4.95387 8.46389C5.15074 8.50741 5.37365 8.47317 5.52541 8.38795L5.53237 8.38404L5.5324 8.3841C6.15747 8.0461 6.731 7.64738 7.25701 7.17357C7.46219 6.98875 7.77834 7.00526 7.96316 7.21043C8.14797 7.41561 8.13147 7.73176 7.92629 7.91658C7.33877 8.4458 6.70054 8.88897 6.01128 9.26199C5.63408 9.47244 5.16005 9.53361 4.73803 9.44032C4.30677 9.34499 3.86227 9.06771 3.68346 8.54141L3.68086 8.53378L3.67852 8.52607L3.29934 7.27956C2.61711 7.82662 2.13017 8.47992 1.81718 9.23863C1.45901 10.1069 1.31834 11.1387 1.40263 12.3466H2.01952C2.31142 11.5998 3.03662 11.0836 3.87008 11.0836C4.7033 11.0836 5.42831 11.5995 5.72038 12.3459H6.37968C6.64451 11.6691 7.26532 11.1818 8 11.0969V11.5V12.1107C7.6529 12.1937 7.3733 12.4607 7.27809 12.8095C7.20196 13.0885 6.94585 13.3459 6.58832 13.3459H5.51173C5.15421 13.3459 4.8981 13.0885 4.82197 12.8095C4.70647 12.3863 4.31962 12.0836 3.87008 12.0836C3.42041 12.0836 3.03346 12.3865 2.91809 12.8099C2.84205 13.089 2.5859 13.3466 2.22825 13.3466H1.03554C0.727168 13.3466 0.470508 13.1128 0.439068 12.8084C0.286223 11.3283 0.420169 10.0028 0.892748 8.85728C1.32139 7.81823 2.01844 6.95235 2.98428 6.26486L2.98366 6.26293C2.76991 5.59959 3.04148 4.83915 3.7026 4.5132C6.23125 3.2665 8.12037 3.55555 9.63588 4.17173C10.1591 4.38447 10.6516 4.64324 11.0871 4.87207C11.2553 4.96044 11.4149 5.04435 11.5646 5.11941C12.134 5.40495 12.5694 5.56982 12.9631 5.56982C13.5754 5.56982 14.0246 5.26063 14.2837 4.86422C14.501 4.5318 14.5557 4.19128 14.5093 3.94853C14.4963 3.90507 14.4841 3.86841 14.4736 3.83907C14.4621 3.80665 14.4527 3.7833 14.4471 3.76971L14.4417 3.75721C14.309 3.48308 14.0166 3.17829 13.6537 3.05622C13.3287 2.94689 12.8789 2.96009 12.3296 3.44008C12.1217 3.62178 11.8058 3.60052 11.6241 3.39258C11.4424 3.18464 11.4637 2.86877 11.6716 2.68707C12.4599 1.99828 13.2757 1.87397 13.9726 2.10841Z" fill="#6C707E"/>
<path id="Path" fill-rule="evenodd" clip-rule="evenodd" d="M9.25933 7.32003C9.16406 7.25882 9.1068 7.14729 9.14402 7.04034C9.24352 6.75444 9.50016 6.54321 9.8117 6.50936C10.1856 6.46872 10.5372 6.69461 10.6556 7.05159C10.7543 7.34903 10.6688 7.67024 10.4501 7.87955C10.3683 7.95785 10.2431 7.95212 10.1478 7.89091L9.25933 7.32003Z" fill="#6C707E"/>
</g>
</g>
<g id="Arrow">
<path id="Vector 61" d="M14.8536 10.3536C15.0488 10.1583 15.0488 9.84171 14.8536 9.64645C14.6583 9.45118 14.3417 9.45118 14.1464 9.64645L14.8536 10.3536ZM14.1464 9.64645L9.64645 14.1464L10.3536 14.8536L14.8536 10.3536L14.1464 9.64645Z" fill="#315FBD"/>
<path id="Vector 62" d="M13 14.5L10 14.5L10 11.5" stroke="#315FBD" stroke-linecap="round" stroke-linejoin="round"/>
</g>
</g>
</g>
</g>
<defs>
<clipPath id="clip0_2_595">
<rect width="16" height="16" fill="white"/>
</clipPath>
<clipPath id="clip1_2_595">
<rect width="16" height="16" fill="white" transform="translate(0 1.00002)"/>
</clipPath>
</defs>
</svg>

<svg width="16" height="16" viewBox="0 0 16 16" fill="none" xmlns="http://www.w3.org/2000/svg"><g clip-path="url(#clip0_2_595)"><g clip-path="url(#clip1_2_595)"><path fill-rule="evenodd" clip-rule="evenodd" d="M13.973 2.108c.653.22 1.136.734 1.368 1.213.067.128.114.264.144.403a4.303 4.303 0 0 1 .115 1.63c-.093.783-.41 1.7-1.16 2.646h-1.348c.671-.652 1.061-1.28 1.28-1.84-.386.252-.86.41-1.409.41-.65 0-1.27-.267-1.847-.557-.182-.091-.36-.185-.54-.28-.42-.22-.841-.442-1.317-.635-1.291-.525-2.879-.79-5.114.312a.449.449 0 0 0-.21.546l.117.36.002.008.578 1.902c.039.106.136.197.322.238.197.043.42.01.571-.076l.007-.004a8.836 8.836 0 0 0 1.725-1.21.5.5 0 0 1 .67.743A9.834 9.834 0 0 1 6.01 9.262c-.377.21-.851.272-1.273.178-.431-.095-.876-.372-1.055-.899l-.002-.007-.002-.008-.38-1.246a4.843 4.843 0 0 0-1.482 1.959c-.358.868-.499 1.9-.414 3.108h.617a1.987 1.987 0 0 1 3.7-.001h.66A1.988 1.988 0 0 1 8 11.096v1.014a.988.988 0 0 0-.722.7.72.72 0 0 1-.69.536H5.512a.72.72 0 0 1-.69-.537.987.987 0 0 0-1.904 0 .72.72 0 0 1-.69.538H1.036a.6.6 0 0 1-.597-.539c-.153-1.48-.019-2.805.454-3.95.428-1.04 1.125-1.906 2.091-2.593v-.002c-.214-.663.057-1.424.719-1.75 2.528-1.247 4.417-.957 5.933-.341.523.212 1.016.471 1.451.7.168.088.328.172.478.247.569.286 1.004.45 1.398.45a1.54 1.54 0 0 0 1.32-.705c.218-.332.273-.673.226-.915a2.193 2.193 0 0 0-.062-.18l-.005-.012a1.437 1.437 0 0 0-.788-.7c-.325-.11-.775-.097-1.324.383a.5.5 0 1 1-.658-.753c.788-.689 1.604-.813 2.3-.579z" fill="#6C707E"/><path fill-rule="evenodd" clip-rule="evenodd" d="M9.26 7.32c-.096-.061-.153-.173-.116-.28a.798.798 0 1 1 1.306.84c-.082.078-.207.072-.302.01l-.889-.57z" fill="#6C707E"/><path d="M14.854 10.354a.5.5 0 0 0-.708-.708l.708.707zm-.708-.708l-4.5 4.5.708.707 4.5-4.5-.708-.707z" fill="#315FBD"/><path d="M13 14.5h-3v-3" stroke="#315FBD" stroke-linecap="round" stroke-linejoin="round"/></g></g><defs><clipPath id="clip0_2_595"><path fill="#fff" d="M0 0h16v16H0z"/></clipPath><clipPath id="clip1_2_595"><path fill="#fff" transform="translate(0 1)" d="M0 0h16v16H0z"/></clipPath></defs></svg>
